lib/brands/icons/polymer.svg

<svg xmlns="http://www.w3.org/2000/svg" fill="none" aria-hidden="true" viewBox="0 0 48 48"><g id="polymer-Icon"><g id="Group"><g id="Group_2"><path id="Vector" fill="#FF4081" d="M27.9993 37.8559L12 10.1441H20.0002L35.9996 37.8559H27.9993Z"/><path id="Vector_2" fill="white" fill-opacity="0.2" d="M27.9995 37.8559L31.9992 30.928L35.9997 37.8559H27.9995Z"/><path id="Vector_3" fill="white" fill-opacity="0.1" d="M23.9995 30.928L27.9992 37.8559L31.9988 30.928H23.9997H23.9995Z"/><path id="Vector_4" fill="black" fill-opacity="0.1" d="M20 24L23.9996 30.928L27.9993 24H20.0002H20Z"/><path id="Vector_5" fill="black" fill-opacity="0.2" d="M20 24L23.9996 17.072L27.9993 24H20.0002H20Z"/><path id="Vector_6" fill="black" fill-opacity="0.3" d="M16.0005 17.072L20.0001 24L23.9998 17.072H16.0006H16.0005Z"/><path id="Vector_7" fill="black" fill-opacity="0.4" d="M16.0005 17.072L20.0001 10.1441L23.9998 17.072H16.0006H16.0005Z"/><path id="Vector_8" fill="black" fill-opacity="0.5" d="M12 10.1441L16.0006 17.072L20.0002 10.1441H12Z"/></g><g id="Group_3"><path id="Vector_9" fill="#536DFE" d="M12.0002 37.8559L4 24L8.00058 17.072L20.0003 37.8559H12.0001H12.0002Z"/><path id="Vector_10" fill="white" fill-opacity="0.2" d="M12 37.8559L16.0006 30.9279L20.0002 37.8559H12Z"/><path id="Vector_11" fill="white" fill-opacity="0.1" d="M8.00049 30.9279L12.0001 37.8559L16.0007 30.9279H8.00049Z"/><path id="Vector_12" fill="black" fill-opacity="0.1" d="M4 24L8.00058 30.9279L12.0002 24H4Z"/><path id="Vector_13" fill="black" fill-opacity="0.2" d="M4 24L8.00058 17.072L12.0002 24H4Z"/></g><g id="Group_4"><path id="Vector_14" fill="#303F9F" d="M12.0001 24L8.00049 17.072L12.0001 10.1441L16.0007 17.072L12.0001 24Z"/><path id="Vector_15" fill="black" fill-opacity="0.2" d="M16.0007 17.072L12.0001 10.1441L8.00049 17.072H16.0007Z"/></g><g id="Group_5"><path id="Vector_16" fill="#3F51B5" d="M35.9996 37.8559L31.999 30.928L35.9996 24L39.9992 30.928L35.9996 37.8559Z"/><path id="Vector_17" fill="black" fill-opacity="0.2" d="M39.9992 30.9279L35.9996 37.8559L31.999 30.9279H39.9992Z"/></g><g id="Group_6"><path id="Vector_18" fill="#7986CB" d="M39.9992 30.928L27.9995 10.1441H35.9997L44 24L39.9994 30.928H39.9992Z"/><path id="Vector_19" fill="white" fill-opacity="0.2" d="M35.9995 24L39.9991 30.928L43.9997 24H35.9995Z"/><path id="Vector_20" fill="white" fill-opacity="0.1" d="M35.9995 24L39.9991 17.072L43.9997 24H35.9995Z"/><path id="Vector_21" fill="black" fill-opacity="0.1" d="M31.999 17.072L35.9996 10.1441L39.9992 17.072H31.999Z"/><path id="Vector_22" fill="black" fill-opacity="0.2" d="M27.9995 10.1441L31.9991 17.072L35.9997 10.1441H27.9995Z"/></g></g></g></svg>

<svg xmlns="http://www.w3.org/2000/svg" fill="none" aria-hidden="true" viewBox="0 0 48 48"><path fill="#FF4081" d="M28 37.856 12 10.144h8l16 27.712h-8Z"/><path fill="#fff" fill-opacity=".2" d="m28 37.856 4-6.928 4 6.928h-8Z"/><path fill="#fff" fill-opacity=".1" d="m24 30.928 4 6.928 3.999-6.928h-8Z"/><path fill="#000" fill-opacity=".1" d="m20 24 4 6.928L28 24h-8Z"/><path fill="#000" fill-opacity=".2" d="m20 24 4-6.928L28 24h-8Z"/><path fill="#000" fill-opacity=".3" d="M16 17.072 20 24l4-6.928h-8Z"/><path fill="#000" fill-opacity=".4" d="m16 17.072 4-6.928 4 6.928h-8Z"/><path fill="#000" fill-opacity=".5" d="m12 10.144 4 6.928 4-6.928h-8Z"/><path fill="#536DFE" d="M12 37.856 4 24l4-6.928 12 20.784h-8Z"/><path fill="#fff" fill-opacity=".2" d="m12 37.856 4-6.928 4 6.928h-8Z"/><path fill="#fff" fill-opacity=".1" d="m8 30.928 4 6.928 4-6.928H8Z"/><path fill="#000" fill-opacity=".1" d="m4 24 4 6.928L12 24H4Z"/><path fill="#000" fill-opacity=".2" d="m4 24 4-6.928L12 24H4Z"/><path fill="#303F9F" d="m12 24-4-6.928 4-6.928 4 6.928L12 24Z"/><path fill="#000" fill-opacity=".2" d="m16 17.072-4-6.928-4 6.928h8Z"/><path fill="#3F51B5" d="m36 37.856-4.001-6.928 4-6.928 4 6.928-4 6.928Z"/><path fill="#000" fill-opacity=".2" d="m40 30.928-4 6.928-4.001-6.928h8Z"/><path fill="#7986CB" d="M40 30.928 28 10.144h8L44 24l-4 6.928Z"/><path fill="#fff" fill-opacity=".2" d="m36 24 4 6.928L44 24h-8Z"/><path fill="#fff" fill-opacity=".1" d="m36 24 4-6.928L44 24h-8Z"/><path fill="#000" fill-opacity=".1" d="m31.999 17.072 4-6.928 4 6.928h-8Z"/><path fill="#000" fill-opacity=".2" d="m28 10.144 4 6.928 4-6.928h-8Z"/></svg>
